!!!COM: Anon.
!!!OTL: For Society War Song (b)
!!!MPN: Maisuiaksis [Holding Eagle]
!!!ODT: <1918//
!!!MLC: Fort Berthold Reservation, North Dakota, United States of America
!! Song was recorded during either the summer of 1912, 1915, or 1918.
!!!AGN: monody
!!!AST: Mandan and Hidatsa Men's Fox Society
!!!AMT: irregular
!!!RWG: Transcribed pitches, durations, and meters are only approximate.
!! Drum not recorded.
**kern
*ICvox
*Imale
*clefG2
*k[]
*M3/4
*MM176
8g
8g
=1
4.a
8e
4e
=2
4.e
8e
4f
=3
[2e
=4
4e]
8B
8B
=5
4.a
8e
=6
4.e
8f
4f
=7
2.e
*M2/4
=8
[4e
8.e]
16e
=9
[2d
=10
4d]
4e
*clefF4
*M3/4
=11
4.d
8d
4c
=12
4.A
8c
4c
=13
2.A
=14
2A
4A
*M2/4
=15
4.A
8A
=16
4A
4A
*M3/4
=17
16E
8.E
2E
=18
2A
4G
=19
2E
=20
2E
8E
8E
=21
2.E
=22
2.E
==
*-
!!!CNT: Hidatsa
!!!TXO: Hidatsa
!!!OCY: United States
!!!OCL: Frances Densmore
!!!YOR: Frances Densmore, "Mandan and Hidatsa Music",
!!!YOR: Bulletin 80, page 124, No. 54
!!!PPR: Smithsonian Institution, Bureau of American Ethnology
!!!PPR: Government Printing Office
!!!PDT: 1923
!!!PPP: Washington, DC, United States of America
!!!YEC: Electronic Copyright 2000 David Huron
!!!YER: August 2000
!!!YEN: United States of America
!!!ENC: David Huron
!!!RDT: August 17, 2000
!!!EEV: Release 1.0
!!!AIN: tom, vox
